X:5917
T:Gan Ainm
R:Reel
S:
H:
C: Sean Ryan
N:
D:
Z:Adrian Scahill
M:4/4
L:1/8
K:C
D2ED CA,A,2|F3G ABcA|d2ed cAdc|AcGE EDCE|\
DFED CA,A,2|F3G ABcA|d2ed cAdc|AcGE EDD2:||\
K:D\
d2fd adfd|gdfd edBc|dDcD BDAF|GEFD EA,A,2|\
d2fd adfd|gdfd edBc|dfec dBAF|GFEG FDD2:||


